X: 1
T: Bride's, The
M: 4/4
L: 1/8
R: reel
K: Dmaj
d2AG FDA,D|B,DA,D CEAc|d2AF GBed|cAag fddc|
d2AG FDA,D|B,DA,D CEAc|dcdA BGdB|AFGE FDDg||
fgaf dAFD|GBed cAAg|fgaf dAFA|GBEc dDDg|
fgaf dAFD|GBed cAAe|dfeg fagb|afge fddc||
